X: 2
T: Highland Harry
T: The Highlander's Farewell to Ireland
R: strathspey
M: 4/4
L: 1/8
K: Ador
B| A2 A>B A2 A>B | g>e d<B G2 G<g| e>d e<g a2 a>g | e<g d<B B<A A>G | 
A2 A>B A2 A>B | g>e d<B G2 G<g| e>d (3efg a2 a>g | (3efg d<B B<A A>e || 
| a2 a>g a2 a>f | g>ag>e d/c/B/A/ G>g |e>d e<g a<b a>g | e<g d<B B>A A>e |
| a2 a>g a2 a>f | g>ag>e d/c/B/A/ G>g | e>d (3efg a2 a>g | (3efg d<B B>A A>B ||

